!!!COM: Palestrina, Giovanni Perluigi da
!!!OPR: Missa Panem nostrum
!!!OMD: Credo
!!!OTL: Et in Spiritum
**kern	**kern	**kern	**kern	**kern
*Ibass	*Ibarit	*Itenor	*Icalto	*Icant
!Bassus	!Baritone	!Tenor	!Altus	!Cantus
*clefF4	*clefF4	*clefGv2	*clefG2	*clefG2
*k[b-]	*k[b-]	*k[b-]	*k[b-]	*k[b-]
*G:dor	*G:dor	*G:dor	*G:dor	*G:dor
*M4/2	*M4/2	*M4/2	*M4/2	*M4/2
=122	=122	=122	=122	=122
1.G	0r	1.d	1.g	1.b
2G	.	2d	2g	2b
=123	=123	=123	=123	=123
2.c	0r	2.e	2.g	2.cc
4c	.	4e	4g	4cc
2F	.	2f	2a	2cc
[2F	.	[2a	[2cc	[2ff
=124	=124	=124	=124	=124
2F]	0r	2a]	2cc]	2ff]
2C	.	2g	2cc	2ee
2D	.	2f	2.a	2dd
2A	.	2e	.	2cc#
.	.	.	4a	.
=125	=125	=125	=125	=125
2D	0r	2d	2f	1dd
1d	.	1f	1a	.
.	.	.	.	1r
2c	.	2e	2a	.
=126	=126	=126	=126	=126
2B-	0r	2d	2g	1r
2A	.	2c	2a	.
1G	.	2.d	[1b-	2r
.	.	.	.	[2dd
.	.	4e	.	.
=127	=127	=127	=127	=127
1F	0r	1f	2b-]	2dd]
.	.	.	2a	2cc
1r	.	1B-	4g	2b-
.	.	.	4f	.
.	.	.	[2f	2a
=128	=128	=128	=128	=128
1r	0r	1c	4f]	1g
.	.	.	8e	.
.	.	.	8d	.
.	.	.	2e	.
[1B-	.	2.d	2f	2f
.	.	.	[2f	[2dd
.	.	4c	.	.
=129	=129	=129	=129	=129
2B-]	0r	2B-	2f]	2dd]
2A	.	2c	2f	2cc
2G	.	2d	2g	2b-
2F	.	2d	2a	2a
=130	=130	=130	=130	=130
2G	0r	2d	2g	2b-
2E-	.	2G	2g	2cc
1D	.	1A	1f	1dd
=131	=131	=131	=131	=131
2C	0r	2c	2e	2g
2BB-	.	2d	2f	1b-
1F	.	1c	1f	.
.	.	.	.	2a
=132	=132	=132	=132	=132
1BB-	1F	2d	2f	2b-
.	.	1f	1b-	1dd
1r	1F	.	.	.
.	.	2f	2a	2cc
=133	=133	=133	=133	=133
0r	1G	1d	1g	1b-
.	2G	2B-	2d	2g
.	2G	2d	2g	2b-
=134	=134	=134	=134	=134
1r	2.A	2d	2f	2.a
.	.	2c#	2e	.
.	4A	.	.	4a
[1D	1A	1d	1f#	1a
=135	=135	=135	=135	=135
1D]	1A	1d	1f#	2r
.	.	.	.	1dd
1D	1A	1d	1f#	.
.	.	.	.	2dd
=136	=136	=136	=136	=136
1E-	1G	2r	1.g	1b-
.	.	2G	.	.
1C	1G	1e-	.	1cc
.	.	.	2c	.
=137	=137	=137	=137	=137
0BB-	0B-	0d	0f	1dd
.	.	.	.	1b-
=138	=138	=138	=138	=138
1F	2A	2c	2f	2cc
.	2A	2f	2a	2cc
1r	2A	2e	2a	2cc
.	2A	2c	2e	2a
=139	=139	=139	=139	=139
0r	2.G	2d	2g	2b
.	.	2e	2g	1cc
.	4G	.	.	.
.	1G	1d	1g	.
.	.	.	.	2b
=140	=140	=140	=140	=140
2r	0F	2f	2a	1cc
1F	.	1f	1a	.
.	.	.	.	1r
2A	.	2c	2cc	.
=141	=141	=141	=141	=141
2G	0r	2d	2b-	2r
2F	.	2f	2a	1cc
1c	.	1e	2g	.
.	.	.	[2cc	2g
=142	=142	=142	=142	=142
1F	0r	2.f	2cc]	2a
.	.	.	2a	2cc
.	.	4e	.	.
[1G	.	4d	[1g	2b-
.	.	4c	.	.
.	.	4B-	.	[2dd
.	.	4A	.	.
=143	=143	=143	=143	=143
1G]	0G	2B-	1g]	2dd]
.	.	2B-	.	2dd
1C	.	1c	1g	1ee-
=144	=144	=144	=144	=144
2D	1F	2A	2r	0dd
2D	.	2A	2d	.
2D	1F	2A	2f	.
2D	.	2B-	2f	.
=145	=145	=145	=145	=145
1C	1G	1c	1e-	0r
2C	2G	2c	2e-	.
2E-	2G	2c	2g	.
=146	=146	=146	=146	=146
2D	2.A	2d	2f	0r
2C	.	2e-	2e-	.
.	4A	.	.	.
1D	1A	4f	[1d	.
.	.	4e-	.	.
.	.	4d	.	.
.	.	4c	.	.
=147	=147	=147	=147	=147
2r	1G	2B-	2d]	2r
2G	.	2B-	2d	2dd
2G	2G	2B-	2g	2dd
2G	2G	2B-	2g	2dd
=148	=148	=148	=148	=148
2.C	2.G	2.e-	2.g	2.cc
4C	4G	4e-	4g	4cc
2C	1G	2e-	[1g	2cc
2C	.	2c	.	2ee-
=149	=149	=149	=149	=149
2G	0r	2B-	2g]	2dd
2E-	.	2G	2g	2cc
[1D	.	2.A	4f	2.dd
.	.	.	4g	.
.	.	.	[2a	.
.	.	8B-	.	4cc
.	.	8c	.	.
=150	=150	=150	=150	=150
0D]	0r	0d	2a]	2b-
.	.	.	1g	4a
.	.	.	.	4g
.	.	.	.	2a
.	.	.	2f#	2a
=151	=151	=151	=151	=151
0r	1G	2r	2g	1.b-
.	.	2d	2g	.
.	2G	2d	2g	.
.	2G	2e	2g	2b-
=152	=152	=152	=152	=152
1r	1F	2.f	4cc	1a
.	.	.	4b-	.
.	.	.	4a	.
.	.	4e	4g	.
1D	1F	1d	1a	2r
.	.	.	.	2dd
=153	=153	=153	=153	=153
1.E-	1G	0r	2r	2cc
.	.	.	2g	2b-
.	1G	.	2g	1cc
2E-	.	.	[2g	.
=154	=154	=154	=154	=154
1D	0A	1r	2g]	0dd
.	.	.	4f#	.
.	.	.	4e	.
1D	.	2r	1f#	.
.	.	2d	.	.
=155	=155	=155	=155	=155
2E-	[0G	2c	2.g	2r
2E-	.	2B-	.	2g
.	.	.	4f	.
1C	.	1c	1e-	2g
.	.	.	.	2cc
=156	=156	=156	=156	=156
2G	0G]	2d	2d	2b-
1B-	.	1d	1g	4g
.	.	.	.	4a
.	.	.	.	4b-
.	.	.	.	4cc
2B-	.	2d	2g	2dd
=157	=157	=157	=157	=157
2.A	0r	2.c	2f	0r
.	.	.	2e	.
4G	.	4B-	.	.
2F	.	2A	2d	.
2E	.	2G	2c	.
=158	=158	=158	=158	=158
2F	0r	1A	2d	2r
2F	.	.	2.c	1ff
1D	.	1d	.	.
.	.	.	8B	.
.	.	.	8A	.
.	.	.	2B	2ff
=159	=159	=159	=159	=159
2C	0r	2.g	4c	2.ee
.	.	.	4d	.
4C	.	.	4e	.
4D	.	4f	4f	4dd
4E	.	2e	2.g	2cc
4F	.	.	.	.
2G	.	2d	.	2b
.	.	.	8f	.
.	.	.	8g	.
=160	=160	=160	=160	=160
1C	0r	1e	4a	2cc
.	.	.	4g	.
.	.	.	1g	2cc
1D	.	2d	.	1a
.	.	2A	2f#	.
=161	=161	=161	=161	=161
1G	0r	1B	2g	2g
.	.	.	2d	1g
1C	.	2.c	1e	.
.	.	.	.	[2a
.	.	4B-	.	.
=162	=162	=162	=162	=162
1D	1F	2A	4f	2a]
.	.	.	4e	.
.	.	2F	4d	2.b-
.	.	.	4c	.
1E-	1G	1r	2B-	.
.	.	.	.	4a
.	.	.	2c	2g
=163	=163	=163	=163	=163
1D	2A	2r	2d	2f
.	2A	2d	1a	1ff
2.F	2.A	1c	.	.
.	.	.	2f	2ff
4F	4A	.	.	.
=164	=164	=164	=164	=164
2C	2G	2c	2g	2.ee-
2C	2G	2c	2g	.
.	.	.	.	4ee-
2G	2B-	2d	2g	2dd
2G	2B-	2d	2g	2dd
=165	=165	=165	=165	=165
2D	2A	2d	2f	2dd
2F	2A	2c	1f	2a
1C	1G	1c	.	1cc
.	.	.	2e	.
=166	=166	=166	=166	=166
2F	1F	2A	2f	2cc
2A	.	2f	2c	2cc
1B-	1r	1d	1f	1dd
=167	=167	=167	=167	=167
2A	1r	2e	2a	2cc
2D	.	2f	2a	2dd
2G	1G	2g	2b-	2dd
2C	.	2e	2cc	2ee
=168	=168	=168	=168	=168
2D	1F	2d	4b-	2ff
.	.	.	4a	.
2F	.	2c	2.a	2ff
2C	2G	1c	.	2ee
.	.	.	4g	.
2E	2G	.	[2g	2cc
=169	=169	=169	=169	=169
1D	2A	2r	2g]	1dd
.	2A	2A	2f#	.
2r	2.G	1B-	1g	2r
2G	.	.	.	2dd
.	4G	.	.	.
=170	=170	=170	=170	=170
1C	1G	1c	2r	1ee-
.	.	.	2g	.
1G	1r	1d	1b-	2dd
.	.	.	.	2g
=171	=171	=171	=171	=171
1D	1r	1.d	2a	2g
.	.	.	2a	2f#
2G	1G	.	2b-	2g
2C	.	2e	2cc	2g
=172	=172	=172	=172	=172
2D	2F	2f	4b-	2dd
.	.	.	4a	.
2F	2F	2f	2.a	4cc
.	.	.	.	4b-
2C	2.G	1e-	.	1cc
.	.	.	4g	.
2E-	.	.	[2g	.
.	4G	.	.	.
=173	=173	=173	=173	=173
1D	1A	2r	2g]	1dd
.	.	2A	2f#	.
2r	1G	2.B-	1g	2.dd
[2G	.	.	.	.
.	.	4c	.	4cc
=174	=174	=174	=174	=174
4G]	[0G	2d	2.g	4b-
4F	.	.	.	4a
4E-	.	2.g	.	2b-
4D	.	.	4f	.
[1C	.	.	4e-	2cc
.	.	4f	4d	.
.	.	4e-	4c	[2gg
.	.	4d	4d	.
=175	=175	=175	=175	=175
0C]	1G_	2.c	2.e-	4gg]
.	.	.	.	4ff
.	.	.	.	4ee-
.	.	4d	4f	4dd
.	1G_	1e-	1g	1cc
=176	=176	=176	=176	=176
0G	0G]	0d	0g	0b
==	==	==	==	==
*-	*-	*-	*-	*-
!!!CDT: 1525/^1526/-1594/2/2
!!!OCY: Italia
!!!AGN: Mass (Tenor)
!!!AST: renaissance, vocal
!!!ASW: Prayer
!!!PWK: Masses, Book 10
!!!RNB: Cadence finals: C
!!!YOR: Le Opere Complete, v. 27, p. 226
!!!YOO: Rome, Italy: Fratelli Scalera
!!!END: 1992//
!!!EED: John Miller
!!!YEC: Copyright 2000, John Miller
!!!YEN: United States of America
!!!YEM: Rights to all derivative electronic formats reserved.
!!!YEM: Refer to licensing agreement for further details.
!!!YEM: This file must be accompanied by the licensing agreement.
!!!YEM: A copy of the licensing agreement may be found at http://www.music-cog.ohio-state.edu/HumdrumDatabases/Palestrina/license.txt
!!!EMD: converted to Humdrum by Bret Aarden
